packages/base/core/src/svg/system/bin.svg

<?xml version="1.0" encoding="UTF-8"?>
<svg width="24px" height="24px" viewBox="0 0 24 24" version="1.1" xmlns="http://www.w3.org/2000/svg" xmlns:xlink="http://www.w3.org/1999/xlink">
    <!-- Generator: Sketch 54.1 (76490) - https://sketchapp.com -->
    <title>Icons/System/bin</title>
    <desc>Created with Sketch.</desc>
    <g id="Icons/System/bin" stroke="none" stroke-width="1" fill="none" fill-rule="evenodd">
        <path d="M9,5 C9,4.44771525 9.44771525,4 10,4 L14,4 C14.5522847,4 15,4.44771525 15,5 L19,5 C19.5522847,5 20,5.44771525 20,6 C20,6.55228475 19.5522847,7 19,7 L5,7 C4.44771525,7 4,6.55228475 4,6 C4,5.44771525 4.44771525,5 5,5 L9,5 Z M5,10 C5,9.44771525 5.44771525,9 6,9 C6.55228475,9 7,9.44771525 7,10 L7,20 L17,20 L17,10 C17,9.44771525 17.4477153,9 18,9 C18.5522847,9 19,9.44771525 19,10 L19,20 C19,21.2189514 18.2189514,22 17,22 L7,22 C5.78104858,22 5,21.2189514 5,20 L5,10 Z" id="Color" fill="#2859C0"></path>
    </g>
</svg>

<svg xmlns="http://www.w3.org/2000/svg" width="24" height="24" viewBox="0 0 24 24">
    <path fill="#0050D7" fill-rule="evenodd" d="M18 9a1 1 0 0 1 1 1v10c0 1.219-.781 2-2 2H7c-1.219 0-2-.781-2-2V10a1 1 0 1 1 2 0v10h10V10a1 1 0 0 1 1-1zm-4-5a1 1 0 0 1 1 1h4a1 1 0 0 1 0 2H5a1 1 0 1 1 0-2h4a1 1 0 0 1 1-1h4z"/>
</svg>
